annanekrasova/img/titles/contacts.svg

<svg width="201" height="201" viewBox="0 0 201 201" fill="none" xmlns="http://www.w3.org/2000/svg">
<path d="M116.975 16.3187C117.365 12.8122 113.649 11.4815 110.471 10.0899C107.799 8.92363 106.392 8.11519 106.588 6.35004C106.795 4.48948 108.552 4.10526 110.866 4.36247C113.442 4.64884 115.427 6.12521 115.109 8.98761L117.065 9.20504C117.37 6.46191 116.013 3.24427 111.051 2.69273C106.901 2.23135 104.913 3.60415 104.627 6.18031C104.296 9.16198 106.604 10.3362 109.809 11.7066C112.393 12.7908 115.292 13.6443 115.009 16.1967C114.784 18.2242 113.061 18.733 110.199 18.4148C106.668 18.0223 104.643 16.9038 105.086 12.9203L103.13 12.7028C102.693 16.6386 104.145 19.4322 110.013 20.0845C114.975 20.6361 116.697 18.8233 116.975 16.3187Z" fill="#B12B00"/>
<path d="M131.989 25.1357L133.83 25.7592L134.092 7.98417L130.273 6.69091L119.668 20.9633L121.532 21.5946L125.655 15.9974L132.089 18.1759L131.989 25.1357ZM126.717 14.583L131.733 7.76805L132.256 7.9451L132.127 16.4152L126.717 14.583Z" fill="#B12B00"/>
<path d="M152.547 16.7069L144.423 21.6554L143.763 22.8536L143.279 22.5871L143.94 21.3889L143.783 11.8745L141.933 10.8548L142.195 23.1129L139.15 28.6416L140.852 29.5802L143.898 24.0516L154.396 17.7266L152.547 16.7069Z" fill="#B12B00"/>
<path d="M177.089 38.0048L171.368 43.2002L164.66 35.8059L170.381 30.6105L169.058 29.153L156.533 40.5281L157.855 41.9856L163.416 36.9354L170.125 44.3297L164.564 49.3799L165.87 50.8196L178.396 39.4446L177.089 38.0048Z" fill="#B12B00"/>
<path d="M168.71 54.8509L174.039 63.8841L175.485 63.0299L171.156 55.6917L176.281 52.6653L180.001 58.9699L181.447 58.1157L177.728 51.811L182.832 48.7968L187.162 56.135L188.608 55.2808L183.279 46.2476L168.71 54.8509Z" fill="#B12B00"/>
<path d="M176.113 69.0583L179.491 77.4296L181.065 76.8421L177.863 68.9431L192.366 63.5297L191.678 61.6858L176.951 67.183C176.096 67.502 175.763 68.1897 176.113 69.0583Z" fill="#B12B00"/>
<path d="M180.529 82.6793L182.383 91.5142L184.036 91.2128L182.272 82.8738L197.501 80.0967L197.149 78.1605L181.684 80.9807C180.786 81.1443 180.338 81.7628 180.529 82.6793Z" fill="#B12B00"/>
<path d="M191.364 93.3009C186.421 93.2206 182.606 96.0871 182.525 101.078C182.445 106.022 186.165 109.011 191.108 109.091C196.027 109.171 199.842 106.304 199.923 101.361C200.004 96.3696 196.284 93.3808 191.364 93.3009ZM191.332 95.2687C195.364 95.3341 198.308 97.3262 198.243 101.334C198.178 105.317 195.171 107.189 191.14 107.123C187.085 107.057 184.14 105.089 184.205 101.106C184.27 97.0982 187.277 95.2028 191.332 95.2687Z" fill="#B12B00"/>
<path d="M184.271 124.392L183.727 125.905C185.083 126.392 185.104 127.114 184.885 127.724C184.293 129.373 181.951 130.214 181.172 132.383C180.718 133.647 181.073 135.356 183.354 136.176L183.898 134.663C182.543 134.176 182.499 133.446 182.718 132.836C183.302 131.21 185.652 130.346 186.431 128.177C186.877 126.935 186.552 125.211 184.271 124.392Z" fill="#B12B00"/>
<path d="M166.371 157.366C169.21 159.461 172.222 156.911 175.018 154.858C177.365 153.13 178.77 152.317 180.199 153.372C181.705 154.483 181.157 156.197 179.776 158.071C178.238 160.157 175.966 161.135 173.649 159.425L172.481 161.01C174.702 162.648 178.166 163.086 181.128 159.068C183.606 155.707 183.414 153.298 181.328 151.759C178.914 149.978 176.742 151.388 173.951 153.474C171.719 155.168 169.528 157.25 167.462 155.725C165.82 154.514 166.243 152.768 167.952 150.449C170.059 147.59 172.041 146.398 175.267 148.778L176.434 147.194C173.248 144.843 170.103 144.7 166.6 149.452C163.638 153.47 164.344 155.87 166.371 157.366Z" fill="#B12B00"/>
<path d="M151.116 165.845L149.656 167.13L164.92 176.234L167.947 173.57L160.879 157.249L159.402 158.55L162.191 164.919L157.094 169.407L151.116 165.845ZM162.887 166.545L166.285 174.297L165.871 174.662L158.599 170.32L162.887 166.545Z" fill="#B12B00"/>
<path d="M148.154 187.868L147.927 178.355L147.219 177.184L147.692 176.899L148.399 178.069L156.716 182.686L158.523 181.593L147.778 175.696L144.512 170.295L142.849 171.301L146.115 176.703L146.347 188.962L148.154 187.868Z" fill="#B12B00"/>
<path d="M117.409 198.527L115.791 190.97L125.553 188.877L127.172 196.434L129.096 196.021L125.552 179.476L123.628 179.889L125.201 187.234L115.439 189.327L113.866 181.982L111.965 182.389L115.509 198.934L117.409 198.527Z" fill="#B12B00"/>
<path d="M107.075 182.718L96.5887 182.889L96.616 184.568L105.135 184.43L105.231 190.381L97.9124 190.5L97.9396 192.18L105.259 192.061L105.355 197.988L96.836 198.127L96.8632 199.806L107.35 199.636L107.075 182.718Z" fill="#B12B00"/>
<path d="M91.0088 182.045L82.0706 180.78L81.7914 182.437L90.2326 183.617L87.6602 198.882L89.6008 199.21L92.2131 183.708C92.3646 182.809 91.9357 182.177 91.0088 182.045Z" fill="#B12B00"/>
<path d="M77.0107 179.061L68.434 176.246L67.8682 177.827L75.9704 180.473L70.7569 195.049L72.6098 195.712L77.9041 180.911C78.2112 180.052 77.9 179.354 77.0107 179.061Z" fill="#B12B00"/>
<path d="M62.492 183.098C65.0041 178.84 64.3974 174.106 60.0989 171.567C55.8417 169.054 51.4059 170.81 48.8938 175.068C46.3939 179.306 47.0006 184.04 51.2577 186.554C55.5563 189.092 59.9921 187.336 62.492 183.098ZM60.7974 182.097C58.7487 185.57 55.5626 187.145 52.1114 185.107C48.6808 183.081 48.5397 179.542 50.5884 176.069C52.6493 172.576 55.8147 170.989 59.2452 173.014C62.6964 175.052 62.8583 178.604 60.7974 182.097Z" fill="#B12B00"/>
<path d="M39.1015 161.423L38.0566 160.2C36.9624 161.137 36.3251 160.797 35.9041 160.305C34.7656 158.973 35.1952 156.521 33.698 154.769C32.8246 153.748 31.1647 153.21 29.3228 154.786L30.3677 156.008C31.4619 155.072 32.1174 155.395 32.5385 155.888C33.6614 157.201 33.2474 159.672 34.7446 161.423C35.6024 162.427 37.2596 162.999 39.1015 161.423Z" fill="#B12B00"/>
<path d="M18.6872 126.878C15.4124 128.19 15.9932 132.095 16.2663 135.553C16.4991 138.459 16.4507 140.082 14.8022 140.742C13.0645 141.439 11.8965 140.071 11.0312 137.91C10.0677 135.503 10.4322 133.056 13.1055 131.985L12.374 130.158C9.81208 131.185 7.61622 133.9 9.47175 138.535C11.024 142.412 13.1723 143.516 15.5782 142.551C18.3629 141.435 18.3085 138.846 18.0041 135.374C17.7402 132.584 17.1241 129.625 19.5078 128.669C21.4014 127.91 22.663 129.189 23.7335 131.862C25.0537 135.16 25.0234 137.473 21.3031 138.964L22.0346 140.791C25.7104 139.318 27.4874 136.718 25.2929 131.237C23.4374 126.603 21.0263 125.94 18.6872 126.878Z" fill="#B12B00"/>
<path d="M19.4972 109.385L19.1872 107.466L3.35294 115.545L3.99593 119.526L21.5716 122.227L21.2578 120.284L14.3819 119.256L13.2988 112.551L19.4972 109.385ZM12.6354 118.98L4.26529 117.732L4.17726 117.187L11.7245 113.341L12.6354 118.98Z" fill="#B12B00"/>
<path d="M2.42458 95.1961L10.6028 100.058L11.9706 100.08L11.9617 100.632L10.5938 100.609L2.26222 105.203L2.22796 107.315L12.9342 101.344L19.2454 101.446L19.2769 99.5023L12.9658 99.3998L2.45885 93.0844L2.42458 95.1961Z" fill="#B12B00"/>
<path d="M9.67774 63.4852L16.9446 66.1149L13.5501 75.5042L6.28325 72.8745L5.61415 74.7252L21.5244 80.4828L22.1935 78.632L15.1298 76.0758L18.5243 66.6866L25.588 69.2428L26.249 67.4146L10.3387 61.6571L9.67774 63.4852Z" fill="#B12B00"/>
<path d="M28.4131 63.0108L33.8849 54.0633L32.4521 53.1862L28.007 60.4547L22.9306 57.3473L26.7496 51.1025L25.3167 50.2254L21.4977 56.4702L16.4418 53.3753L20.8868 46.1067L19.454 45.2296L13.9822 54.1771L28.4131 63.0108Z" fill="#B12B00"/>
<path d="M37.4807 49.8204L43.2605 42.886L41.9995 41.7758L36.5526 48.3318L24.934 38.1026L23.6342 39.5803L35.433 49.9681C36.1175 50.5708 36.8805 50.5391 37.4807 49.8204Z" fill="#B12B00"/>
<path d="M47.4709 39.5311L54.3845 33.7264L53.3395 32.411L46.8203 37.902L37.1908 25.7816L35.6505 27.0066L45.4293 39.3148C45.9966 40.0289 46.7533 40.1325 47.4709 39.5311Z" fill="#B12B00"/>
<path d="M51.5966 25.0135C53.8963 29.3901 58.2403 31.3628 62.6585 29.0391C67.0343 26.7378 67.8731 22.0393 65.5735 17.6626C63.285 13.3073 58.941 11.3346 54.5652 13.6359C50.147 15.9596 49.3082 20.6581 51.5966 25.0135ZM53.3384 24.0974C51.463 20.5281 51.7994 16.9888 55.3467 15.1231C58.8727 13.2687 61.9563 15.0094 63.8317 18.5787C65.7183 22.1692 65.4032 25.6974 61.8771 27.5519C58.3298 29.4176 55.225 27.688 53.3384 24.0974Z" fill="#B12B00"/>
<path d="M82.4385 16.5271L84.0298 16.2959C83.823 14.8709 84.4501 14.513 85.0914 14.4199C86.8252 14.168 88.6684 15.8405 90.9485 15.5093C92.2786 15.3161 93.6202 14.1997 93.2721 11.8008L91.6808 12.032C91.8876 13.457 91.2639 13.8386 90.6226 13.9318C88.9126 14.1801 87.0455 12.5112 84.7655 12.8423C83.4592 13.0321 82.0904 14.1282 82.4385 16.5271Z" fill="#B12B00"/>
</svg>

<svg width="201" height="201" fill="none" xmlns="http://www.w3.org/2000/svg"><path d="M116.975 16.319c.39-3.507-3.326-4.837-6.504-6.23-2.672-1.165-4.079-1.974-3.883-3.739.207-1.86 1.964-2.245 4.278-1.988 2.576.287 4.561 1.763 4.243 4.626l1.956.217c.305-2.743-1.052-5.96-6.014-6.512-4.15-.462-6.138.911-6.424 3.487-.331 2.982 1.977 4.156 5.182 5.527 2.584 1.084 5.483 1.937 5.2 4.49-.225 2.027-1.948 2.536-4.81 2.218-3.531-.393-5.556-1.511-5.113-5.495l-1.956-.217c-.437 3.936 1.015 6.73 6.883 7.381 4.962.552 6.684-1.26 6.962-3.765zm15.014 8.817l1.841.623.262-17.775-3.819-1.293-10.605 14.272 1.864.632 4.123-5.598 6.434 2.179-.1 6.96zm-5.272-10.553l5.016-6.815.523.177-.129 8.47-5.41-1.832zm25.83 2.124l-8.124 4.948-.66 1.199-.484-.267.661-1.198-.157-9.514-1.85-1.02.262 12.258-3.045 5.529 1.702.938 3.046-5.528 10.498-6.325-1.849-1.02zm24.542 21.298l-5.721 5.195-6.708-7.394 5.721-5.195-1.323-1.458-12.525 11.375 1.322 1.458 5.561-5.05 6.709 7.394-5.561 5.05 1.306 1.44 12.526-11.375-1.307-1.44zM168.71 54.85l5.329 9.034 1.446-.854-4.329-7.338 5.125-3.027 3.72 6.305 1.446-.854-3.719-6.305 5.104-3.014 4.33 7.338 1.446-.854-5.329-9.033-14.569 8.603zm7.403 14.208l3.378 8.372 1.574-.588-3.202-7.899 14.503-5.413-.688-1.844-14.727 5.497c-.855.319-1.188 1.007-.838 1.875zm4.416 13.622l1.854 8.834 1.653-.301-1.764-8.34 15.229-2.776-.352-1.936-15.465 2.82c-.898.163-1.346.782-1.155 1.698zm10.835 10.62c-4.943-.08-8.758 2.787-8.839 7.778-.08 4.944 3.64 7.933 8.583 8.013 4.919.08 8.734-2.787 8.815-7.73.081-4.991-3.639-7.98-8.559-8.06zm-.032 1.969c4.032.065 6.976 2.057 6.911 6.065-.065 3.983-3.072 5.855-7.103 5.789-4.055-.066-7-2.034-6.935-6.017.065-4.008 3.072-5.903 7.127-5.837zm-7.061 29.123l-.544 1.513c1.356.487 1.377 1.209 1.158 1.819-.592 1.649-2.934 2.49-3.713 4.659-.454 1.264-.099 2.973 2.182 3.793l.544-1.513c-1.355-.487-1.399-1.217-1.18-1.827.584-1.626 2.934-2.49 3.713-4.659.446-1.242.121-2.966-2.16-3.785zm-17.9 32.974c2.839 2.095 5.851-.455 8.647-2.508 2.347-1.728 3.752-2.541 5.181-1.486 1.506 1.111.958 2.825-.423 4.699-1.538 2.086-3.81 3.064-6.127 1.354l-1.168 1.585c2.221 1.638 5.685 2.076 8.647-1.942 2.478-3.361 2.286-5.77.2-7.309-2.414-1.781-4.586-.371-7.377 1.715-2.232 1.694-4.423 3.776-6.489 2.251-1.642-1.211-1.219-2.957.49-5.276 2.107-2.859 4.089-4.051 7.315-1.671l1.167-1.584c-3.186-2.351-6.331-2.494-9.834 2.258-2.962 4.018-2.256 6.418-.229 7.914zm-15.255 8.479l-1.46 1.285 15.264 9.104 3.027-2.664-7.068-16.321-1.477 1.301 2.789 6.369-5.097 4.488-5.978-3.562zm11.771.7l3.398 7.752-.414.365-7.272-4.342 4.288-3.775zm-14.733 21.323l-.227-9.513-.708-1.171.473-.285.707 1.17 8.317 4.617 1.807-1.093-10.745-5.897-3.266-5.401-1.663 1.006 3.266 5.402.232 12.259 1.807-1.094zm-30.745 10.659l-1.618-7.557 9.762-2.093 1.619 7.557 1.924-.413-3.544-16.545-1.924.413 1.573 7.345-9.762 2.093-1.573-7.345-1.901.407 3.544 16.545 1.9-.407zm-10.334-15.809l-10.486.171.027 1.679 8.519-.138.096 5.951-7.319.119.028 1.68 7.319-.119.096 5.927-8.519.139.027 1.679 10.487-.17-.275-16.918zm-16.066-.673l-8.938-1.265-.28 1.657 8.442 1.18-2.573 15.265 1.94.328 2.613-15.502c.152-.899-.277-1.531-1.204-1.663zm-13.999-2.984l-8.576-2.815-.566 1.581 8.102 2.646-5.213 14.576 1.853.663 5.294-14.801c.307-.859-.004-1.557-.893-1.85zm-14.518 4.037c2.512-4.258 1.905-8.992-2.393-11.531-4.257-2.513-8.693-.757-11.205 3.501-2.5 4.238-1.893 8.972 2.364 11.486 4.298 2.538 8.734.782 11.234-3.456zm-1.695-1.001c-2.048 3.473-5.234 5.048-8.686 3.01-3.43-2.026-3.571-5.565-1.523-9.038 2.061-3.493 5.227-5.08 8.657-3.055 3.451 2.038 3.613 5.59 1.552 9.083zm-21.695-20.674l-1.045-1.223c-1.095.937-1.732.597-2.153.105-1.138-1.332-.709-3.784-2.206-5.536-.873-1.021-2.533-1.559-4.375.017l1.045 1.222c1.094-.936 1.75-.613 2.17-.12 1.123 1.313.71 3.784 2.207 5.535.857 1.004 2.515 1.576 4.357 0zm-20.415-34.545c-3.275 1.312-2.694 5.217-2.42 8.675.232 2.906.184 4.529-1.465 5.189-1.737.697-2.905-.671-3.77-2.832-.964-2.407-.6-4.854 2.073-5.925l-.731-1.827c-2.562 1.027-4.758 3.742-2.902 8.377 1.552 3.877 3.7 4.981 6.106 4.016 2.785-1.116 2.73-3.705 2.426-7.177-.264-2.79-.88-5.749 1.504-6.705 1.893-.759 3.155.52 4.226 3.193 1.32 3.298 1.29 5.611-2.43 7.102l.73 1.827c3.676-1.473 5.453-4.073 3.259-9.554-1.856-4.634-4.267-5.297-6.606-4.359zm.81-17.493l-.31-1.919-15.834 8.079.643 3.981 17.576 2.701-.314-1.943-6.876-1.028-1.083-6.705 6.198-3.166zm-6.862 9.595l-8.37-1.248-.088-.545 7.548-3.846.91 5.639zM2.425 95.196l8.178 4.862 1.368.022-.01.552-1.367-.023-8.332 4.594-.034 2.112 10.706-5.971 6.311.102.032-1.944-6.311-.102-10.507-6.316-.034 2.112zm7.253-31.711l7.267 2.63-3.395 9.39-7.267-2.63-.669 1.85 15.91 5.758.67-1.851-7.064-2.556 3.394-9.39 7.064 2.557.661-1.828-15.91-5.758-.661 1.828zm18.735-.475l5.472-8.947-1.433-.877-4.445 7.269-5.076-3.108 3.819-6.245-1.433-.877-3.82 6.245-5.055-3.095 4.445-7.268-1.433-.877-5.472 8.947 14.431 8.834zm9.067-13.19l5.78-6.934-1.26-1.11-5.447 6.556-11.619-10.23-1.3 1.478 11.799 10.388c.684.603 1.447.571 2.048-.148zm9.99-10.289l6.915-5.805-1.045-1.315-6.52 5.491-9.63-12.12-1.54 1.225 9.78 12.308c.567.714 1.323.818 2.04.216zm4.127-14.517c2.3 4.376 6.643 6.349 11.061 4.025 4.376-2.301 5.215-7 2.915-11.376-2.288-4.356-6.632-6.328-11.008-4.027-4.418 2.324-5.257 7.022-2.968 11.378zm1.741-.917c-1.875-3.569-1.539-7.108 2.009-8.974 3.526-1.854 6.61-.114 8.485 3.456 1.886 3.59 1.571 7.118-1.955 8.973-3.547 1.866-6.652.136-8.539-3.455zm29.101-7.57l1.59-.231c-.206-1.425.421-1.783 1.062-1.876 1.734-.252 3.577 1.42 5.858 1.09 1.33-.194 2.671-1.31 2.323-3.71l-1.591.232c.207 1.425-.417 1.807-1.058 1.9-1.71.248-3.578-1.42-5.858-1.09-1.306.19-2.675 1.286-2.326 3.685z" fill="#B12B00"/></svg>
